Papirus/64x64/apps/tor.svg

<?xml version="1.0" encoding="UTF-8" standalone="no"?>
<svg xmlns="http://www.w3.org/2000/svg" height="64" width="64" version="1">
 <path style="opacity:0.2;fill-rule:evenodd" d="m 32.718449,22.106254 c 0,0.400706 -0.0015,1.062536 0.0118,1.796907 0.0048,-0.580549 0.0064,-1.179838 -0.0118,-1.796907 z M 14.039173,42.77056 c -0.03996,0.778491 -0.04376,1.577523 0.01562,2.421836 0.367166,5.952688 4.816872,10.911161 10.77356,12.85559 C 27.440391,58.879998 29.846427,59 32.540467,59 c 4.324064,0 8.76813,-1.112016 11.992177,-3.730055 3.426051,-2.778041 5.468081,-6.944103 5.468081,-11.270167 0,-0.351505 -0.03058,-0.69897 -0.05468,-1.046895 -0.275804,3.977858 -2.240033,7.743914 -5.41408,10.316552 -3.224047,2.618039 -7.668113,3.730055 -11.992177,3.730055 -2.69404,0 -5.100076,-0.120001 -7.712114,-0.954014 -5.956689,-1.944028 -10.406354,-6.902102 -10.77356,-12.85419 -0.0098,-0.144002 -0.0078,-0.278004 -0.0152,-0.420006 z"/>
 <path style="fill:#abcd03;fill-rule:evenodd" d="m 32.844451,10.610469 -0.084,6.404295 C 34.848481,13.147307 36.972512,8.5660388 40.780569,6.0000008 37.996528,9.0252456 36.650508,13.721915 35.094485,16.74716 37.714523,13.300309 42.028587,8.7864421 46.000646,7.5226233 40.718568,11.926689 35.732494,19.251597 32.538447,24.000267 l -2.538038,-1.034015 c 0.449987,-3.791256 0.591829,-8.602727 2.843842,-12.355983 z"/>
 <path style="fill:#7d529d;fill-rule:evenodd" d="m 27.518372,18.000178 -0.529667,0.396686 c 2.652239,4.642669 1.264778,7.103105 -0.04106,7.976118 -2.652239,1.785787 -6.528497,4.00846 -8.445925,5.952888 -3.713255,3.690455 -4.773271,7.221507 -4.446666,11.864376 0.367166,5.952688 4.814471,10.912962 10.77116,12.85739 2.612038,0.834013 5.018074,0.954014 7.712114,0.954014 4.324064,0 8.77213,-1.112016 11.994177,-3.732055 3.428051,-2.776041 5.468081,-6.944103 5.468081,-11.268167 0,-4.365064 -1.876628,-8.491325 -5.181676,-11.427769 -1.754566,-1.547543 -3.957459,-2.817641 -6.242493,-4.04806 -1.019935,-0.555848 -4.162261,-2.936843 -3.101446,-6.349494 L 31.884917,20.699558 32.179181,20.842 31.39769,20.526516 27.519032,18.001278 Z m 5.199477,3.104246 0.0014,0 c 0.0182,0.617069 0.0158,1.216478 0.011,1.797027 -0.0132,-0.734371 -0.0122,-1.396321 -0.0122,-1.797027 z"/>
 <path style="fill:#ffffff;fill-rule:evenodd;fill-opacity:1;opacity:0.2" d="M 27.517578 18 L 26.988281 18.396484 C 27.128058 18.641159 27.251201 18.876735 27.369141 19.109375 L 27.517578 18.998047 L 27.519531 19 L 31.398438 21.525391 L 32.179688 21.839844 L 31.884766 21.697266 L 32.722656 21.808594 L 35.289062 22.148438 C 35.318122 21.833683 35.370337 21.511225 35.474609 21.175781 L 31.884766 20.699219 L 32.179688 20.841797 L 31.398438 20.527344 L 27.519531 18.001953 L 27.517578 18 z M 32.71875 22.103516 C 32.73695 22.720585 32.735269 23.319842 32.730469 23.900391 C 32.717269 23.16602 32.71875 22.504222 32.71875 22.103516 z M 35.294922 23.080078 C 34.980606 26.003858 37.649377 28.01835 38.576172 28.523438 C 40.861206 29.753856 43.063793 31.024723 44.818359 32.572266 C 47.990336 35.390479 49.828321 39.307185 49.972656 43.476562 C 49.978154 43.317848 50 43.161152 50 43.001953 C 50 38.636889 48.123407 34.510663 44.818359 31.574219 C 43.063793 30.026676 40.861206 28.75581 38.576172 27.525391 C 37.75885 27.079964 35.583001 25.461244 35.294922 23.080078 z M 28.470703 23.589844 C 28.337527 25.011782 27.633516 25.914257 26.947266 26.373047 C 24.295027 28.158834 20.419381 30.381744 18.501953 32.326172 C 15.078671 35.728435 13.925206 39.00545 14.019531 43.132812 C 14.128589 39.466011 15.358561 36.44831 18.501953 33.324219 C 20.419381 31.379791 24.295027 29.156881 26.947266 27.371094 C 27.782226 26.812884 28.646375 25.601549 28.470703 23.589844 z"/>
 <path style="fill:#ffffff;fill-rule:evenodd;fill-opacity:1;opacity:0.1" d="M 40.78125 6 C 36.981284 8.5605856 34.857191 13.12798 32.773438 16.990234 L 32.759766 18.013672 C 34.47776 14.831596 36.237188 11.1851 38.921875 8.5566406 C 39.467827 7.6339068 40.078589 6.7635376 40.78125 6 z M 46 7.5234375 C 42.533489 8.6264024 38.807948 12.20256 36.173828 15.386719 C 35.811682 16.234635 35.457782 17.038337 35.09375 17.746094 C 37.247547 14.912617 40.547093 11.361781 43.859375 9.484375 C 44.565857 8.7880022 45.278667 8.124867 46 7.5234375 z M 32.84375 10.611328 C 30.592579 14.364371 30.449928 19.176034 30 22.966797 L 30.101562 23.007812 C 30.483689 19.389618 30.770457 15.082768 32.830078 11.632812 L 32.84375 10.611328 z"/>
</svg>

<?xml version="1.0" encoding="UTF-8" standalone="no"?>
<svg xmlns="http://www.w3.org/2000/svg" height="64" width="64" version="1">
 <path style="opacity:.2;fill-rule:evenodd" d="m32.718 22.106c0 .40071-.0015 1.0625.0118 1.7969.0048-.58055.0064-1.1798-.0118-1.7969zm-18.679 20.665c-.03996.77849-.04376 1.5775.01562 2.4218.36717 5.9527 4.8169 10.911 10.774 12.856 2.611.831 5.017.951 7.711.951 4.3241 0 8.7681-1.112 11.992-3.7301 3.4261-2.778 5.4681-6.9441 5.4681-11.27 0-.35150-.03058-.69897-.05468-1.0469-.27580 3.9779-2.24 7.7439-5.4141 10.317-3.224 2.618-7.6681 3.7301-11.992 3.7301-2.694 0-5.1001-0.12-7.7121-.95401-5.9567-1.944-10.406-6.9021-10.774-12.854-.0098-0.144-.0078-0.278-.0152-.42001z"/>
 <path style="fill-rule:evenodd;fill:#abcd03" d="m32.844 10.61-.084 6.4043c2.088-3.867 4.213-8.448 8.021-11.014-2.784 3.0252-4.13 7.722-5.687 10.747 2.621-3.447 6.935-7.9606 10.907-9.2244-5.282 4.4044-10.269 11.729-13.463 16.477l-2.538-1.034c.44999-3.7913.59183-8.6027 2.8438-12.356z"/>
 <path style="opacity:.2;fill-rule:evenodd;fill:#ffffff" d="m40.781 6c-3.8 2.5606-5.924 7.128-8.008 10.99l-.013 1.024c1.718-3.182 3.477-6.829 6.162-9.4574.546-.9227 1.157-1.7931 1.859-2.5566zm5.219 1.5234c-3.467 1.103-7.192 4.6796-9.826 7.8636-.362.848-.716 1.651-1.08 2.359 2.154-2.833 5.453-6.384 8.765-8.2616.707-.6964 1.42-1.3595 2.141-1.961zm-13.156 3.0876c-2.251 3.753-2.394 8.565-2.844 12.356l.102.041c.382-3.618.668-7.925 2.728-11.375l.014-1.022z"/>
 <path style="fill-rule:evenodd;fill:#7d529d" d="m27.518 18-.52967.39669c2.6522 4.6427 1.2648 7.1031-.04106 7.9761-2.6522 1.7858-6.5285 4.0085-8.4459 5.9529-3.7133 3.6905-4.7733 7.2215-4.4467 11.864.36717 5.9527 4.8145 10.913 10.771 12.857 2.612.83401 5.0181.95401 7.7121.95401 4.3241 0 8.7721-1.112 11.994-3.7321 3.4281-2.776 5.4681-6.9441 5.4681-11.268 0-4.3651-1.8766-8.4913-5.1817-11.428-1.7546-1.5475-3.9575-2.8176-6.2425-4.0481-1.0199-.55585-4.1623-2.9368-3.1014-6.3495l-3.588-.475.294.142-.781-.315-3.879-2.526zm5.1995 3.1042h.0014c.0182.61707.0158 1.2165.011 1.797-.0132-.73437-.0122-1.3963-.0122-1.797z"/>
 <path style="opacity:.1;fill-rule:evenodd;fill:#ffffff" d="m27.518 18l-.530.396c.140.246.263.482.381.715l.149-.111.002.002 3.878 2.525.782.315-.295-.143.838.112 2.566.339c.029-.315.081-.638.186-.974l-3.59-.477.295.143-.782-.315-3.878-2.525-.002-.002zm5.201 4.105c.018.618.016 1.217.011 1.797-.013-.734-.011-1.396-.011-1.797zm2.576.977c-.314 2.924 2.354 4.938 3.281 5.443 2.285 1.231 4.488 2.502 6.242 4.049 3.172 2.818 5.01 6.735 5.155 10.905.005-.160.027-.317.027-.477 0-4.365-1.877-8.491-5.182-11.428-1.754-1.547-3.957-2.818-6.242-4.049-.817-.445-2.992-2.063-3.281-4.443zm-6.824.510c-.134 1.421-.838 2.322-1.524 2.781-2.652 1.786-6.528 4.009-8.445 5.953-3.423 3.402-4.575 6.679-4.481 10.807.110-3.666 1.338-6.683 4.481-9.807 1.917-1.944 5.793-4.167 8.445-5.953.835-.558 1.699-1.769 1.524-3.781z"/>
</svg>
